X:1
T:Thores schottis
R:Schottis
O:Ort, Hälsingland
M:4/4
L:1/8
K:G
 DC |: B,2 G,2 G,B,DB,| C2 A,2 A,2 AG | F2 D2 DFAc | B2 G2 DEDC |B,2 G,2 G,B,DB,| C2 A,2 A,2 AG | F2 D2 DFAF |1 G2 G2 GEDC :|2 G2 G2 G2 Bc | d2 dedc B2 | c2 cdcB A2 | D2 DF ADBA|GFGA BABc |   d2 dedc B2 | c2 cdcB A2 | D2 DFAc BA |1 G2 G2 G2 Bc :|2 G2 G2 GEDC|]

